X: 23556
T: Light And Airy
R: jig
M: 6/8
K: Gmajor
d3 dBd|G2 A B2 e|d3 dcB|A2 B c2 e|
d3 dBd|GB/c/d gdB|cac BgB|A2 B c2:|
gbg dBd|gbg dBd|gbg dcB|A2 B c2 e|
gbg abc'|bag fed|gfe dcB|A2 B c2:|
dBG G2 B|dBG Bdg|dBG G2 B|A2 B c2 e|
dBG GBd|gfe dcB|cac BgB|A2 B c2:|
gag gdB|gag gba|gag gdB|A2 B c2 e|
gbg ac'a|gbg faf|gfe dcB|A2 B c2:|

